X:116
M:3/4
L:1/8
Q:1/4=100
K:C
c>d|B2 A^GEG|(B2A2) B>A|=G3 E^GB|A2 z2 c>d|
e2G2 (A>G)|A2 G<E A>G|A2 G<E D2|C2 z2:|
|:(E>F)|G4 A>B|c2e2 d>c|B2 A>^GEG|A2 z2 c>d|e2G2 A>G|A2 GEA>G|
c2C2 (E>D)|E2A2 G>F|E3F D2|C4||

